X:1
T:Title
%%score { ( 1 2 ) | ( 3 4 ) }
L:1/8
Q:1/4=146
M:3/4
K:F
V:1 treble nm="Grand Piano"
V:2 treble 
V:3 bass 
V:4 bass 
V:1
 c4 z2 | F4 z2 | G4 z2 | A6 | c4 z2 | F4 z2 | B4 z2 | A6 | z2 F2 c2 | E4 z2 | d4 z2 | c6 | c4 z2 | %13
w: Owen~F.~Pugh|||||||||||||
 d4 z2 | A4 z2 | F6 | c4 z2 | c4 z2 | E4 [Ed]2 | [Ed]6 | [Fc]4 z2 | B4 A2 | G4 G2 | %23
w: ||||||||||
[M:7/8] [CEG]-[CEG]-[CEG]- [CEG]- [CEG]3 |[M:3/4] F4 G2 | A4 [Fc]2 | [Ff]4 [_Af]2 | [Af]6 | %28
w: |||||
 [_EFc]4 [EF]2 | [DFB]4 [^CFB]2 | [CFA]4 [B,EG]2 | [F,A,F]6 |] %32
w: ||||
V:2
 z2 A2 c2 | z2 C2 F2 | z2 E2 G2 | z2 F2 F2 | z2 A2 c2 | z2 C2 F2 | z2 F2 B2 | z2 F2 F2 | A4 z2 | %9
 z2 C2 E2 | z2 B2 d2 | z2 A2 A2 | z2 A2 ^c2 | z2 B2 B2 | z2 F2 G2 | z2 C2 C2 | z2 E2 c2 | %17
 z2 F2 c2 | x6 | x6 | z2 B,2 F2 | x6 | x6 |[M:7/8] x7 |[M:3/4] x6 | x6 | x6 | x6 | x6 | x6 | x6 | %31
 x6 |] %32
V:3
 z2[K:treble] [CF]2 [CFA]2 | z2 A,2 [A,C]2 | z2 C2 [CE]2 | z2 [A,C]2 [A,C]2 | %4
 z2[K:treble] [CF]2 [CFA]2 | z2 A,2 [A,C_E]2 | z2 D2 [DF]2 | z2 C2 C2 | z2[K:treble] C2 [CFA]2 | %9
 z2 B,2 [B,C]2 | z2[K:treble] [EG]2 [EGB]2 | z2[K:treble] [CF]2 [CF]2 | %12
 z2[K:treble] [CF]2 [^CFA]2 | z2[K:treble] [DF]2 [DF]2 | z2 [A,C]2 [B,CE]2 | z2 A,2 A,2 | %16
 [F,A,F]2 [G,B,]2[K:treble] [A,CF]2 | [B,G]2 z2[K:bass] z2 | [C,B,C]4 [C,B,]2 | [C,B,]6 | %20
 [F,A,]2 G,2[K:treble] [A,C]2 | [B,DF]4 [F,CF]2 | [G,=B,F]4 [G,B,F]2 |[M:7/8][K:bass] C,- C,3 B,3 | %24
[M:3/4] [A,C]4 [G,CE]2 | [F,CF]4 [_E,A,]2 | [D,B,]4 [^C,=B,]2 | [C,C]6 | A,,4 A,,2 | B,,4 B,,2 | %30
 C,4 C,2 | F,,6 |] %32
V:4
 [F,,F,]6[K:treble] | [F,,F,]6 | C,6 | [F,,F,]6 | [F,,F,]6[K:treble] | A,,6 | B,,6 | [F,,F,]6 | %8
 [F,,F,]6[K:treble] | C,6 | C,6[K:treble] | [F,,F,]6[K:treble] | [F,,F,]6[K:treble] | %13
 B,,6[K:treble] | C,6 | [F,,F,]6 | x4[K:treble] x2 | C2- [A,C]2[K:bass] [G,CE]2 | x6 | x6 | %20
 x4[K:treble] x2 | x6 | x6 |[M:7/8][K:bass] x7 |[M:3/4] x6 | x6 | x6 | x6 | x6 | x6 | x6 | x6 |] %32

